!!!COM:      Bach, Johann Sebastian
!!!CDT:      1685/03/31/-1750/07/28/
!!!OPR@@GER: Das wohltemperirte Clavier
!!!OVM@@GER: Band II
!!!OPR@ENG:  Well-Tempered Clavier
!!!OVM@ENG:  Book II
!!!OTL:      Prelude
!!!OKY:      F-sharp major
!!!ONM:      no. 13
!!!SCT:      BWV 882
!!!OMV:      1
**kern	**kern	**kern	**kern
*clefF4	*	*	*clefG2
*k[f#c#g#d#a#e#]	*	*	*k[f#c#g#d#a#e#]
*F#:	*	*	*F#:
*M3/4	*	*	*M3/4
*MM72	*MM72	*MM72	*MM72
=1-	=1-	=1-	=1-
8.F#	2.ryy	2.ryy	12...cc#
.	.	.	32b
16G#	.	.	32a#
.	.	.	32g#
.	.	.	8g#Q
8.A#	.	.	4.f#
16G#	.	.	.
8.A#	.	.	.
.	.	.	16r
16F#	.	.	16ff#
=2	=2	=2	=2
8.c#	2.ryy	2.ryy	8.ee#
16B	.	.	32ff#
.	.	.	32gg#
8.A#	.	.	4.cc#
16d#	.	.	.
8.c#	.	.	.
.	.	.	16r
16d#	.	.	16ff#
=3	=3	=3	=3
8.G#	2.ryy	2.ryy	8.b
16A#	.	.	16dd#
8.B	.	.	8.g#
16G#	.	.	16b
8.c#	.	.	8.e#
16C#	.	.	16cc#
=4	=4	=4	=4
8.F#	2.ryy	2.ryy	16a#
.	.	.	16cc#
.	.	.	16f#
16c#	.	.	16g#
8.c#	.	.	16a#
.	.	.	16f#
.	.	.	16cc#
16c#	.	.	16a#
8.A#	.	.	16f#
.	.	.	16a#
.	.	.	16g#
16c#	.	.	16f#
=5	=5	=5	=5
8.E#	2.ryy	2.ryy	16g#
.	.	.	16cc#
.	.	.	16e#
16c#	.	.	16f#
8.c#	.	.	16g#
.	.	.	16e#
.	.	.	16cc#
16c#	.	.	16g#
8.G#	.	.	16e#
.	.	.	16g#
.	.	.	16f#
16c#	.	.	16e#
=6	=6	=6	=6
8.D#	2.ryy	2.ryy	16f#
.	.	.	16a#
.	.	.	16d#
16c#	.	.	16e#
8.c#	.	.	16f#
.	.	.	16d#
.	.	.	16a#
16c#	.	.	16f#
8.F#	.	.	16d#
.	.	.	16f#
.	.	.	16e#
16B#	.	.	16d#
=7	=7	=7	=7
8.C#	2.ryy	2.ryy	16e#
.	.	.	16g#
.	.	.	16c#
32G#	.	.	16d#
32A#	.	.	.
8.Bn	.	.	16e#
.	.	.	16c#
.	.	.	16g#
16G#	.	.	16e#
8.E#	.	.	16c#
.	.	.	16b
.	.	.	16a#
16C#	.	.	16g#
=8	=8	=8	=8
8.F#	2.ryy	2.ryy	16a#
.	.	.	16cc#
.	.	.	16f#
16C#	.	.	16g#
4FF#	.	.	16a#
.	.	.	16f#
.	.	.	16cc#
.	.	.	16a#
4r	.	.	16f#
.	.	.	16g#
.	.	.	16f#
.	.	.	16e#
=9	=9	=9	=9
8.F##	2.ryy	2.ryy	16d#
.	.	.	16a#
.	.	.	16d#
32A#	.	.	16e#
32B	.	.	.
8.c#	.	.	16f##
.	.	.	16d#
.	.	.	16a#
16A#	.	.	16f##
8.F##X	.	.	16d#
.	.	.	16cc#
.	.	.	16b#
16D#	.	.	16a#
=10	=10	=10	=10
8.G#	2.ryy	2.ryy	16b#
.	.	.	16dd#
.	.	.	16g#
16D#	.	.	16a#
4GG#	.	.	16b#
.	.	.	16g#
.	.	.	16dd#
.	.	.	16b#
4r	.	.	16g#
.	.	.	16a#
.	.	.	16g#
.	.	.	16f#
=11	=11	=11	=11
8.G##	2.ryy	2.ryy	16e#
.	.	.	16b#
.	.	.	16e#
32B#	.	.	16f##
32c#	.	.	.
8.d#	.	.	16g##
.	.	.	16e#
.	.	.	16b#X
16B#X	.	.	16g##
8.G##X	.	.	16e#
.	.	.	16dd#
.	.	.	16cc#
16E#	.	.	16b#X
=12	=12	=12	=12
[4A#	2.ryy	2.ryy	8.cc#
.	.	.	16a#
12...A#]	.	.	[4ff#
32A#	.	.	.
32B#	.	.	.
32c#	.	.	.
8.d#	.	.	12...ff#]
.	.	.	32ee#
16f#	.	.	32dd#
.	.	.	32cc#
=13	=13	=13	=13
[4B#	2.ryy	2.ryy	8.dd#
.	.	.	16b#
12...B#]	.	.	[4gg#
32c#	.	.	.
32B#	.	.	.
32A#	.	.	.
8.B#	.	.	12...gg#]
.	.	.	32ff#
16G#	.	.	32ee#
.	.	.	32dd#
=14	=14	=14	=14
16c#	2.ryy	2.ryy	8.ee#
16C#	.	.	.
16D#	.	.	.
16E#	.	.	16cc#
16F#	.	.	12...aa#
16FF#	.	.	.
16F#	.	.	.
.	.	.	32gg#
16E#	.	.	32ff#
.	.	.	32ee#
16F#	.	.	8.dd#
16FF#	.	.	.
16F#	.	.	.
16E#	.	.	16ff#
=15	=15	=15	=15
.	.	.	8cc#Q
[4F#	2.ryy	2.ryy	12...b#
.	.	.	32dd#
.	.	.	32ee#
.	.	.	32ff#
12...F#]	.	.	8.gg#
32D#	.	.	.
32E#	.	.	16b#X
32F#	.	.	.
12...E#	.	.	8.cc#
32C#	.	.	.
32D#	.	.	16g#
32E#	.	.	.
=16	=16	=16	=16
8.F#	2.ryy	2.ryy	12...a#
.	.	.	32g#
16D#	.	.	32f#
.	.	.	32e#
12...G#	.	.	8.d#
32A#	.	.	.
32G#	.	.	16cc#
32F#	.	.	.
8.G#	.	.	8.g#
16GG#	.	.	16b#
=17	=17	=17	=17
12...C#	2.ryy	2.ryy	16cc#
.	.	.	16g#
.	.	.	16cc#
32E#	.	.	.
32D#	.	.	16dd#
32C#	.	.	.
4.G#	.	.	16ee#
.	.	.	16cc#
.	.	.	16gg#
.	.	.	16ee#
.	.	.	16cc#
.	.	.	16ee#
16r	.	.	16dd#
16c#	.	.	16cc#
=18	=18	=18	=18
8.B#	2.ryy	2.ryy	16dd#
.	.	.	16gg#
.	.	.	16g#
32c#	.	.	16a#
32d#	.	.	.
[4G#	.	.	16b#
.	.	.	16g#
.	.	.	16dd#
.	.	.	16b#
16G#]	.	.	16g#
16A#	.	.	16ff#
16G#	.	.	16ee#
16F#	.	.	16dd#
=19	=19	=19	=19
8.E#	2.ryy	2.ryy	16cc#
.	.	.	16g#
.	.	.	16cc#
32D#	.	.	16dd#
32C#	.	.	.
8.Bn	.	.	16ee#
.	.	.	16cc#
.	.	.	16gg#
16G#	.	.	16ee#
8.E#	.	.	16cc#
.	.	.	16bb
.	.	.	16aa#
16B	.	.	16gg#
=20	=20	=20	=20
16A#	2.ryy	2.ryy	12...ff#
16c#	.	.	.
16F#	.	.	.
.	.	.	32b
16G#	.	.	32a#
.	.	.	32g#
16A#	.	.	4.f#
16F#	.	.	.
16c#	.	.	.
16A#	.	.	.
16F#	.	.	.
16A#	.	.	.
16G#	.	.	16r
16F#	.	.	16ff#
=21	=21	=21	=21
16G#	2.ryy	2.ryy	8.ee#
16c#	.	.	.
16C#	.	.	.
16D#	.	.	32ff#
.	.	.	32gg#
16E#	.	.	[4cc#
16C#	.	.	.
16G#	.	.	.
16E#	.	.	.
16C#	.	.	16cc#]
16B	.	.	16dd#
16A#	.	.	16cc#
16G#	.	.	16b
=22	=22	=22	=22
16F#	2.ryy	2.ryy	8.a#
16C#	.	.	.
16F#	.	.	.
16G#	.	.	32g#
.	.	.	32f#
16A#	.	.	8.een
16F#	.	.	.
16c#	.	.	.
16A#	.	.	16cc#
16F#	.	.	8.a#
16en	.	.	.
16d#	.	.	.
16c#	.	.	16een
=23	=23	=23	=23
8.B	2.ryy	2.ryy	16dd#
.	.	.	16ff#
.	.	.	16b
16F#	.	.	16cc#
8.F#	.	.	16dd#
.	.	.	16b
.	.	.	16ff#
16B	.	.	16dd#
8.d#	.	.	16b
.	.	.	16dd#
.	.	.	16cc#
16F#	.	.	16b
=24	=24	=24	=24
8.A#	2.ryy	2.ryy	16cc#
.	.	.	16ff#
.	.	.	16a#
16F#	.	.	16b
8.F#	.	.	16cc#
.	.	.	16a#
.	.	.	16ff#
16A#	.	.	16cc#
8.c#	.	.	16a#
.	.	.	16cc#
.	.	.	16b
16F#	.	.	16a#
=25	=25	=25	=25
8.G#	2.ryy	2.ryy	16b
.	.	.	16dd#
.	.	.	16g#
16F#	.	.	16a#
8.F#	.	.	16b
.	.	.	16g#
.	.	.	16dd#
16G#	.	.	16b
8.B	.	.	16g#
.	.	.	16b
.	.	.	16a#
16E#	.	.	16g#
=26	=26	=26	=26
16F#	2.ryy	2.ryy	8.a#
16c#	.	.	.
16F#	.	.	.
16G#	.	.	16cc#
16A#	.	.	8.cc#T
16F#	.	.	.
16c#	.	.	.
16A#	.	.	32b#
.	.	.	32cc#
16F#	.	.	8.cc#T
16A#	.	.	.
16G#	.	.	.
16F#	.	.	32b#
.	.	.	32cc#
=27	=27	=27	=27
16E#	2.ryy	2.ryy	8.g#
16c#	.	.	.
16E#	.	.	.
16F#	.	.	16cc#
16G#	.	.	8.cc#T
16E#	.	.	.
16c#	.	.	.
16G#	.	.	32b#
.	.	.	32cc#
16E#	.	.	8.cc#T
16G#	.	.	.
16F#	.	.	.
16E#	.	.	32b#
.	.	.	32cc#
=28	=28	=28	=28
16D#	2.ryy	2.ryy	8.f#
16c#	.	.	.
16D#	.	.	.
16E#	.	.	16cc#
16F#	.	.	8.aa#
16D#	.	.	.
16c#	.	.	.
16F#	.	.	16cc#
16D#	.	.	8.b#w
16F#	.	.	.
16E#	.	.	.
16D#	.	.	16cc#
=29	=29	=29	=29
16C#	2.ryy	2.ryy	4.cc#
16c#	.	.	.
16C#	.	.	.
16D#	.	.	.
16E#	.	.	.
16C#	.	.	.
16G#	.	.	32r
.	.	.	32cc#
16E#	.	.	32dd#
.	.	.	32ee#
16BB	.	.	8.ee#t
16D#	.	.	.
16C#	.	.	.
16BB	.	.	32dd#
.	.	.	32ee#
=30	=30	=30	=30
4.AA#	2.ryy	2.ryy	16ff#
.	.	.	16cc#
.	.	.	16f#
.	.	.	16g#
.	.	.	16a#
.	.	.	16f#
32r	.	.	16cc#
32F#	.	.	.
32G#	.	.	16a#
32A#	.	.	.
8.A#t	.	.	16en
.	.	.	16g#
.	.	.	16f#
32G#	.	.	16e
32A#	.	.	.
=31	=31	=31	=31
16B	2.ryy	2.ryy	4.d#
16F#	.	.	.
16BB	.	.	.
16C#	.	.	.
16D#	.	.	.
16BB	.	.	.
16F#	.	.	32r
.	.	.	32dd#
16D#	.	.	32cc##
.	.	.	32dd#
16AA#	.	.	8.dd#T
16C#	.	.	.
16BB	.	.	.
16AA#	.	.	32cc##
.	.	.	32dd#
=32	=32	=32	=32
4.GG#	2.ryy	2.ryy	16ee#
.	.	.	16b
.	.	.	16e#
.	.	.	16f#
.	.	.	16g#
.	.	.	16e#
32r	.	.	16b
32G#	.	.	.
32F##	.	.	16g#
32G#	.	.	.
8.G##t	.	.	16d#
.	.	.	16f#
.	.	.	16e#
32F##X	.	.	16d#
32G##	.	.	.
=33	=33	=33	=33
16A#	2.ryy	2.ryy	8.c##
16E#	.	.	.
16AA#	.	.	.
16BB#	.	.	32d#
.	.	.	32e#
16C##	.	.	[4A#
16AA#	.	.	.
16E#	.	.	.
16C##	.	.	.
16GG#	.	.	16A#]
16BBn	.	.	16g#
16AA#	.	.	16f#
16GG#	.	.	16e#
=34	=34	=34	=34
8.FF#	2.ryy	2.ryy	16d#
.	.	.	16f#
.	.	.	16a#
16A#	.	.	16f#
8.A#	.	.	16dd#
.	.	.	16a#
.	.	.	16ff#
16F#	.	.	16dd#
8.F#	.	.	16a#
.	.	.	16dd#
.	.	.	16cc##
16D#	.	.	16b#
=35	=35	=35	=35
8.EE#	2.ryy	2.ryy	16cc##
.	.	.	16ee#
.	.	.	16a#
16A#	.	.	16b#
8.A#	.	.	16cc##X
.	.	.	16a#
.	.	.	16gg#
16E#	.	.	16ee#
8.E#	.	.	16cc##X
.	.	.	16bbn
.	.	.	16aa#
16C##	.	.	16gg#
=36	=36	=36	=36
8.DD#	2.ryy	2.ryy	16ff#
.	.	.	16aa#
.	.	.	16dd#
16A#	.	.	16ee#
8.A#	.	.	16ff#
.	.	.	16dd#
.	.	.	16aa#
16D#	.	.	16ff#
8.D#	.	.	16dd#
.	.	.	16ff#
.	.	.	16ee#
16BB#	.	.	16dd#
=37	=37	=37	=37
8.CC##	2.ryy	2.ryy	16ee#
.	.	.	16aa#
.	.	.	16a#
16A#	.	.	16b#
8.A#	.	.	16cc##
.	.	.	16a#
.	.	.	16ee#
16C##X	.	.	16cc##
8.C##	.	.	16a#
.	.	.	16gg#
.	.	.	16ff#
16AA#	.	.	16ee#
=38	=38	=38	=38
16D#	2.ryy	2.ryy	8.ff#
16A#	.	.	.
16D#	.	.	.
16E#	.	.	16cc##
16F#	.	.	12...dd#
16D#	.	.	.
16A#	.	.	.
.	.	.	32f#
16F#	.	.	32e#
.	.	.	32d#
16D#	.	.	8.g##t
16F#	.	.	.
16E#	.	.	.
16D#	.	.	32f##
.	.	.	32g##
=39	=39	=39	=39
16C#	2.ryy	2.ryy	16a#
16A#	.	.	16e#
16C#	.	.	16a#
16D#	.	.	16b#
16E#	.	.	16cc#
16C#	.	.	16a#
16A#	.	.	16ee#
16E#	.	.	16cc#
16C#	.	.	16aa#
16E#	.	.	16gg#
16D#	.	.	16ff#
16C#	.	.	16ee#
=40	=40	=40	=40
16BB	2.ryy	2.ryy	16dd#
16A#	.	.	16cc##
16BB	.	.	8dd#
16C#	.	.	.
16D#	.	.	8r
16BB	.	.	.
16G#	.	.	32r
.	.	.	32dd#
16D#	.	.	32ee#
.	.	.	32ff##
16BB	.	.	8.gg#
16D#	.	.	.
16C#	.	.	.
16BB	.	.	16gg#
=41	=41	=41	=41
16AA#	2.ryy	2.ryy	16gg#
16A#	.	.	16ee#
16AA#	.	.	16cc##
16BB#	.	.	16dd#
16C##	.	.	16ee#
16AA#	.	.	16cc##X
16E#	.	.	16g#
16C##	.	.	16b
.	.	.	8d#Q
16GG#	.	.	8.c##X
16BBn	.	.	.
16AA#	.	.	.
16GG#	.	.	16b
=42	=42	=42	=42
16FF#	2.ryy	2.ryy	12...a#
16AA#	.	.	.
16D#	.	.	.
.	.	.	32g#
16E#	.	.	32f#
.	.	.	32e#
16F#	.	.	4.d#
16D#	.	.	.
16F#	.	.	.
16G#	.	.	.
16A#	.	.	.
16F#	.	.	.
16B	.	.	16r
16B	.	.	16dd#
=43	=43	=43	=43
.	.	.	8dd#Q
[4B	2.ryy	2.ryy	12...cc##
.	.	.	32dd#
.	.	.	32ee#
.	.	.	32ff#
12...B]	.	.	4.gg#
32A#	.	.	.
32G#	.	.	.
32F#	.	.	.
8.E#	.	.	.
.	.	.	16r
16c##	.	.	16aa#
=44	=44	=44	=44
.	.	.	8gg#Q
8.d#	2.ryy	2.ryy	8.ff#
16G#	.	.	16ee#
.	.	.	8dd#Q
12...A#	.	.	4.cc##t
32B	.	.	.
32A#	.	.	.
32G#	.	.	.
8.A#	.	.	.
.	.	.	8dd#
16AA#	.	.	.
=45	=45	=45	=45
8.D#	2.ryy	2.ryy	16dd#
.	.	.	16a#
.	.	.	16f#
16d#	.	.	16g#
8.d#	.	.	16a#
.	.	.	16f#
.	.	.	16dd#
16d#	.	.	16a#
8.A#	.	.	16f#
.	.	.	16g#
.	.	.	16f#
16d#	.	.	16e#
=46	=46	=46	=46
8.C#	2.ryy	2.ryy	16f##
.	.	.	16dd#
.	.	.	16f##
16d#	.	.	16g#
8.d#	.	.	16a#
.	.	.	16f##X
.	.	.	16dd#
16d#	.	.	16a#
8.A#	.	.	16f##X
.	.	.	16a#
.	.	.	16g#
16d#	.	.	16f##
=47	=47	=47	=47
8.BB	2.ryy	2.ryy	16g#
.	.	.	16dd#
.	.	.	16g#
16d#	.	.	16a#
8.d#	.	.	16b
.	.	.	16g#
.	.	.	16dd#
16d#	.	.	16b
8.B	.	.	16g#
.	.	.	16b
.	.	.	16a#
16d#	.	.	16g#
=48	=48	=48	=48
8.F##	2.ryy	2.ryy	16a#
.	.	.	16dd#
.	.	.	16a#
16d#	.	.	16b
8.d#	.	.	16cc#
.	.	.	16a#
.	.	.	16een
16d#	.	.	16cc#
8.c#	.	.	16a#
.	.	.	16cc#
.	.	.	16b
16d#	.	.	16a#
=49	=49	=49	=49
16G#	2.ryy	2.ryy	8.b
16D#	.	.	.
16GG#	.	.	.
16AA#	.	.	16f##
16BB	.	.	8.g#
16GG#	.	.	.
16D#	.	.	.
16BB	.	.	16b
16GG#	.	.	12...dd#
16C#	.	.	.
16BB	.	.	.
.	.	.	32gg#
16AA#	.	.	32ff#
.	.	.	32ee#
=50	=50	=50	=50
16BB#	2.ryy	2.ryy	8.ff#
16G#	.	.	.
16BB#	.	.	.
16C#	.	.	16f##
16D#	.	.	8.g#
16BB#X	.	.	.
16G#	.	.	.
16D#	.	.	16b#
16BB#X	.	.	12...dd#
16D#	.	.	.
16C#	.	.	.
.	.	.	32ff#
16BB#	.	.	32ee#
.	.	.	32dd#
=51	=51	=51	=51
16C#	2.ryy	2.ryy	8.ee#
16G#	.	.	.
16C#	.	.	.
16D#	.	.	16f##
16E#	.	.	8.g#
16C#	.	.	.
16G#	.	.	.
16E#	.	.	16cc#
16C#	.	.	12...ee#
16E#	.	.	.
16D#	.	.	.
.	.	.	32g#
16C#	.	.	32f#X
.	.	.	32e#
=52	=52	=52	=52
16D#	2.ryy	2.ryy	8.f#
16G#	.	.	.
16D#	.	.	.
16E#	.	.	16a#
16F#	.	.	8.d#
16D#	.	.	.
16A#	.	.	.
16F#	.	.	16cc#
16D#	.	.	8.b#t
16F#	.	.	.
16E#	.	.	.
16D#	.	.	32a#
.	.	.	32b#
=53	=53	=53	=53
16E#	2.ryy	2.ryy	16cc#
16G#	.	.	16g#
16c#	.	.	16e#
16G#	.	.	16f#
16E#	.	.	16g#
16G#	.	.	16e#
16C#	.	.	16cc#
16E#	.	.	16g#
16G#	.	.	16e#
16C#	.	.	16f#
16G#	.	.	16e#
16A#	.	.	16d#
=54	=54	=54	=54
12...B	2.ryy	2.ryy	16c#
.	.	.	16g#
.	.	.	16e#
32c#	.	.	.
32B	.	.	16f#
32A#	.	.	.
[4B	.	.	16g#
.	.	.	16e#
.	.	.	16cc#
.	.	.	16g#
12...B]	.	.	16e#
.	.	.	16g#
.	.	.	16f#
32G#	.	.	.
32A#	.	.	16e#
32B	.	.	.
=55	=55	=55	=55
16A#	2.ryy	2.ryy	16f#
16F#	.	.	16cc#
16A#	.	.	16f#
16G#	.	.	16g#
16F#	.	.	16a#
16A#	.	.	16f#
16C#	.	.	16cc#
16F#	.	.	16a#
16A#	.	.	16f#
16F#	.	.	16a#
16G#	.	.	16g#
16A#	.	.	16f#
=56	=56	=56	=56
8.E#	2.ryy	2.ryy	16g#
.	.	.	16cc#
.	.	.	16g#
16c#	.	.	16a#
12...C#	.	.	16b
.	.	.	16g#
.	.	.	16dd#
32C#	.	.	.
32D#	.	.	16b
32E#	.	.	.
8.E#t	.	.	16g#
.	.	.	16b
.	.	.	16a#
32D#	.	.	16g#
32E#	.	.	.
=57	=57	=57	=57
8.F#	2.ryy	2.ryy	16a#
.	.	.	32cc#
.	.	.	32b
.	.	.	32a#
.	.	.	32g#
16G#	.	.	32f#
.	.	.	32e#
8.A#	.	.	4.f#
16G#	.	.	.
8.A#	.	.	.
.	.	.	16r
16F#	.	.	16ff#
=58	=58	=58	=58
8.c#	2.ryy	2.ryy	8.ee#
16B	.	.	32ff#
.	.	.	32gg#
8.A#	.	.	4.cc#
16d#	.	.	.
8.c#	.	.	.
.	.	.	16r
16d#	.	.	16ff#
=59	=59	=59	=59
8.G#	2.ryy	2.ryy	8.b
16A#	.	.	16dd#
8.B	.	.	8.g#
16G#	.	.	16b
8.c#	.	.	8.e#
16C#	.	.	16cc#
=60	=60	=60	=60
8.F#	2.ryy	2.ryy	16a#
.	.	.	16cc#
.	.	.	16f#
32En	.	.	16g#
32D#	.	.	.
8.E	.	.	16a#
.	.	.	16f#
.	.	.	16cc#
16C#	.	.	16a#
8.AA#	.	.	16f#
.	.	.	16een
.	.	.	16dd#
16FF#	.	.	16cc#
=61	=61	=61	=61
8.BB	2.ryy	2.ryy	16dd#
.	.	.	16ff#
.	.	.	16b
16F#	.	.	16cc#
4B	.	.	16dd#
.	.	.	16b
.	.	.	16ff#
.	.	.	16dd#
4r	.	.	16a#
.	.	.	16cc#
.	.	.	16b
.	.	.	16a#
=62	=62	=62	=62
8.BB#	2.ryy	2.ryy	16g#
.	.	.	16dd#
.	.	.	16g#
32D#	.	.	16a#
32E#	.	.	.
8.F#	.	.	16b#
.	.	.	16g#
.	.	.	16dd#
16D#	.	.	16b#
8.BB#X	.	.	16g#
.	.	.	16ff#
.	.	.	16ee#
16GG#	.	.	16dd#
=63	=63	=63	=63
8.C#	2.ryy	2.ryy	16ee#
.	.	.	16gg#
.	.	.	16cc#
16G#	.	.	16dd#
4c#	.	.	16ee#
.	.	.	16cc#
.	.	.	16gg#
.	.	.	16ee#
4r	.	.	16bn
.	.	.	16dd#
.	.	.	16cc#
.	.	.	16b
=64	=64	=64	=64
8.C##	2.ryy	2.ryy	16a#
.	.	.	16ee#
.	.	.	16a#
32E#	.	.	16b#
32F#	.	.	.
8.G#	.	.	16cc##
.	.	.	16a#
.	.	.	16ee#
16E#	.	.	16cc##
8.C##X	.	.	16a#
.	.	.	16gg#
.	.	.	16ff#
16AA#	.	.	16ee#
=65	=65	=65	=65
[4D#	2.ryy	2.ryy	8.ff#
.	.	.	16dd#
12...D#]	.	.	[4bb
32D#	.	.	.
32E#	.	.	.
32F#	.	.	.
8.G#	.	.	12...bb]
.	.	.	32aa#
16B	.	.	32gg#
.	.	.	32ff#
=66	=66	=66	=66
[4E#	2.ryy	2.ryy	8.gg#
.	.	.	16bb
12...E#]	.	.	[4cc#
32F#	.	.	.
32E#	.	.	.
32D#	.	.	.
8.E#	.	.	16cc#]
.	.	.	32dd#
.	.	.	32ee#
.	.	.	16ff#
16C#	.	.	16gg#
=67	=67	=67	=67
8.F#	2.ryy	2.ryy	8.aa#
16B	.	.	16gg#
.	.	.	8ff#Q
12...c#	.	.	4.ee#t
32G#	.	.	.
32A#	.	.	.
32B	.	.	.
4C#	.	.	.
.	.	.	8ff#
=68	=68	=68	=68
8.F#	2.ryy	2.ryy	16ff#
.	.	.	16aa#
.	.	.	16cc#
16c#	.	.	16ee#
8.c#	.	.	16ff#
.	.	.	16cc#
.	.	.	16aa#
16c#	.	.	16ff#
8.A#	.	.	16cc#
.	.	.	16gg#
.	.	.	16ff#
16c#	.	.	16ee#
=69	=69	=69	=69
8.En	2.ryy	2.ryy	16ff#
.	.	.	16cc#
.	.	.	16a#
16c#	.	.	16b
8.A#	.	.	16cc#
.	.	.	16a#
.	.	.	16ff#
16En	.	.	16cc#
8.E	.	.	16a#
.	.	.	16b
.	.	.	16a#
16D#	.	.	16g#
=70	=70	=70	=70
8.D#	2.ryy	2.ryy	16f#
.	.	.	16an
.	.	.	16B#
16An	.	.	16e#
8.A	.	.	16f#
.	.	.	16B#X
.	.	.	16an
16A	.	.	16f#
8.F#	.	.	16B#X
.	.	.	16g#
.	.	.	16f#
16A	.	.	16e#
=71	=71	=71	=71
8.C#	2.ryy	2.ryy	16f#
.	.	.	16an
.	.	.	16cc#
16E#	.	.	16b
8.F#	.	.	16an
.	.	.	16cc#
.	.	.	16f#
16C#	.	.	16a
8.C#	.	.	16cc#
.	.	.	16an
.	.	.	16cc#
16BB#	.	.	16ee#
=72	=72	=72	=72
8.BB#	2.ryy	2.ryy	16ff#
.	.	.	16aan
.	.	.	16dd#
16B#X	.	.	16ee#
8.B#	.	.	16ff#
.	.	.	16dd#
.	.	.	16aan
16d#	.	.	16ff#
8.G#	.	.	16dd#
.	.	.	16ff#
.	.	.	16ee#
16F#	.	.	16dd#
=73	=73	=73	=73
*	*staff:1	*staff:2	*
*	*clefF4	*clefG2	*
*	*k[f#c#g#d#a#e#]	*k[f#c#g#d#a#e#]	*
4BB	4E#	4g# 4cc#	4ee# 4gg#
8r	4ryy	8r	8r
16r	.	16r	16r
16B	.	16g# 16cc#	16ee#
8A#	4ryy	16f# 16cc#	16.ff#
.	.	16r	.
.	.	.	64ee#
.	.	.	64dd#
8r	.	8r	32cc#
.	.	.	32b
.	.	.	32a#
.	.	.	32g#
=74	=74	=74	=74
8.r	8.r	8.r	8.f#
16BB#	16A#	16f#	16dd#
2C#	8.G#	2c#	4f#
.	16A#	.	.
.	4Bn	.	8.e#w
.	.	.	16f#
=75	=75	=75	=75
2.FF#	2.A#	2.c#	2.f#
==	==	==	==
*-	*-	*-	*-
!!!AFR:  prelude
!!!EFL:  73/96
!!!END:  1994/02/10/
!!!VID:  967169611 Bach, BWV 882-01
!!!AST:  Baroque
!!!OCY:  Deutschland
!!!ODT:  1742///
!!!PDT:  1801///
!!!EED:  Walter Hewlett
!!!ENC:  Walter Hewlett
!!!YOR:  Bach Gesellschaft Edition xiv
!!!AFT:  enhanced SCORE
!!!RDT:  2011/10/07/ by Andreas Kornstaedt using massScr2hmd
!!!SCA1: Thematisch-systematisches Verzeichnis der musikalischen Werke 
!!!SCA2: Johann Sebastian Bach: Bach-Werke-Verzeichnis (Schmieder)
!!!YEC1: Copyright 1994, 2000 Center for Computer Assisted Research 
!!!YEC2: in the Humanities
!!!YEM1: Rights to all derivative editions reserved.
!!!YEM2: Refer to licensing agreement for further details.
!!!YEN:  United States of America
!!!ref:  @{OTL}, @{SCT}
!!muse2ps: T^@{OTL} @{ONM} in @{OKY}^C^J.S. Bach\n@{SCT}-@{OMV}^
!!muse2ps: u^@{OPR@ENG}, @{OVM@ENG}^j
